X:212
T: EINS ZWEI DREI VIER FUENF SECHS SIEBEN
N: K3047
O: Europa, Mitteleuropa, Deutschland, Saarland
R: Kinder - Lied, Auszaehl - Reim
M: 4/4
L: 1/4
K: G
 | DGGG | GFAz |
DAAA | AGBz |
GBdz | eedz |
ccBB | AAGz

@@@ Tune index: 7549
